source/icon/monitor.svg

<svg width="36" height="36" viewBox="0 0 36 36" fill="none" xmlns="http://www.w3.org/2000/svg">
<path d="M12.3 32.9C11.1 32.9 10.1 31.9 10.1 30.7C10.1 29.5 11.1 28.5 12.3 28.5H15.8V27.2H9.79998C7.99998 27.2 6.89998 27.2 5.79998 26.7C4.79998 26.2 4.09998 25.5 3.59998 24.5C3.09998 23.4 3.09998 22.3 3.09998 20.5V9.7C3.09998 7.9 3.09998 6.8 3.59998 5.7C4.09998 4.7 4.79998 4 5.79998 3.5C6.89998 3 7.99998 3 9.79998 3H26.2C28 3 29.1 3 30.2 3.5C31.2 4 31.9 4.7 32.4 5.7C32.9 6.8 32.9 7.9 32.9 9.7V20.5C32.9 22.3 32.9 23.4 32.4 24.5C31.9 25.5 31.2 26.2 30.2 26.7C29.1 27.2 28 27.2 26.2 27.2H20.2V28.5H23.7C24.9 28.5 25.9 29.5 25.9 30.7C25.9 31.9 24.9 32.9 23.7 32.9H12.4H12.3ZM9.79998 7.5C8.99998 7.5 7.99998 7.5 7.79998 7.5C7.69998 7.5 7.59998 7.6 7.49998 7.8C7.49998 8 7.49998 9 7.49998 9.8V20.6C7.49998 21.4 7.49998 22.4 7.49998 22.6C7.49998 22.7 7.69998 22.8 7.79998 22.9C7.99998 22.9 8.99998 22.9 9.79998 22.9H26.2C27 22.9 28 22.9 28.2 22.9C28.3 22.9 28.4 22.7 28.5 22.6C28.5 22.4 28.5 21.4 28.5 20.6V9.8C28.5 9 28.5 8 28.5 7.8C28.5 7.7 28.3 7.6 28.2 7.5C28 7.5 27 7.5 26.2 7.5H9.79998Z" fill="white"/>
<path d="M26.2 3.59998C28 3.59998 29 3.59998 30 4.09998C30.9 4.49998 31.5 5.19998 32 6.09998C32.5 7.09998 32.5 8.09998 32.5 9.89998V20.7C32.5 22.5 32.5 23.5 32 24.5C31.6 25.4 30.9 26 30 26.5C29 27 28 27 26.2 27H19.7V29.3H23.7C24.6 29.3 25.4 30.1 25.4 31C25.4 31.9 24.6 32.7 23.7 32.7H12.4C11.5 32.7 10.7 31.9 10.7 31C10.7 30.1 11.5 29.3 12.4 29.3H16.4V27H9.89998C8.09998 27 7.09998 27 6.09998 26.5C5.19998 26.1 4.59998 25.4 4.09998 24.5C3.59998 23.5 3.59998 22.5 3.59998 20.7V9.89998C3.59998 8.09998 3.59998 7.09998 4.09998 6.09998C4.49998 5.19998 5.19998 4.59998 6.09998 4.09998C7.09998 3.59998 8.09998 3.59998 9.89998 3.59998H26.3M9.79998 23.4H26.2C27.3 23.4 28.2 23.4 28.4 23.3C28.6 23.2 28.8 23 28.9 22.8C29 22.6 29 21.6 29 20.6V9.79998C29 8.69998 29 7.79998 28.9 7.59998C28.8 7.39998 28.6 7.19998 28.4 7.09998C28.2 6.99998 27.2 6.99998 26.2 6.99998H9.79998C8.69998 6.99998 7.79998 6.99998 7.59998 7.09998C7.39998 7.19998 7.19998 7.39998 7.09998 7.59998C6.99998 7.79998 6.99998 8.79998 6.99998 9.79998V20.6C6.99998 21.7 6.99998 22.6 7.09998 22.8C7.19998 23 7.39998 23.2 7.59998 23.3C7.79998 23.4 8.79998 23.4 9.79998 23.4ZM26.2 2.59998H9.79998C7.89998 2.59998 6.79998 2.59998 5.59998 3.19998C4.59998 3.69998 3.69998 4.59998 3.19998 5.59998C2.59998 6.79998 2.59998 7.89998 2.59998 9.79998V20.6C2.59998 22.5 2.59998 23.6 3.19998 24.8C3.69998 25.8 4.59998 26.7 5.59998 27.2C6.79998 27.8 7.89998 27.8 9.79998 27.8H15.3V28.1H12.3C10.8 28.1 9.59998 29.3 9.59998 30.8C9.59998 32.3 10.8 33.5 12.3 33.5H23.6C25.1 33.5 26.3 32.3 26.3 30.8C26.3 29.3 25.1 28.1 23.6 28.1H20.6V27.8H26.1C28 27.8 29.1 27.8 30.3 27.2C31.3 26.7 32.2 25.8 32.7 24.8C33.3 23.6 33.3 22.5 33.3 20.6V9.79998C33.3 7.89998 33.3 6.79998 32.7 5.59998C32.2 4.59998 31.3 3.69998 30.3 3.19998C29.1 2.59998 28 2.59998 26.1 2.59998H26.2ZM7.99998 7.99998C8.29998 7.99998 9.19998 7.99998 9.79998 7.99998H26.2C26.8 7.99998 27.7 7.99998 28 7.99998C28 8.29998 28 9.19998 28 9.79998V20.6C28 21.2 28 22.1 28 22.4C27.7 22.4 26.8 22.4 26.2 22.4H9.79998C9.19998 22.4 8.29998 22.4 7.99998 22.4C7.99998 22.1 7.99998 21.2 7.99998 20.6V9.79998C7.99998 9.19998 7.99998 8.29998 7.99998 7.99998Z" fill="#1E1E1E"/>
</svg>

<?xml version="1.0" encoding="UTF-8"?>
<svg id="_레이어_1" data-name="레이어 1" xmlns="http://www.w3.org/2000/svg" version="1.1" viewBox="0 0 36 36">
  <defs>
    <style>
      .cls-1 {
        fill: #1e1e1e;
      }

      .cls-1, .cls-2 {
        stroke-width: 0px;
      }

      .cls-2 {
        fill: #fff;
      }
    </style>
  </defs>
  <g id="SVGRepo_iconCarrier" data-name="SVGRepo iconCarrier">
    <g>
      <path class="cls-2" d="M12.3,32.9c-1.2,0-2.2-1-2.2-2.2s1-2.2,2.2-2.2h3.5v-1.3h-6c-1.8,0-2.9,0-4-.5-1-.5-1.7-1.2-2.2-2.2-.5-1.1-.5-2.2-.5-4v-10.8c0-1.8,0-2.9.5-4,.5-1,1.2-1.7,2.2-2.2,1.1-.5,2.2-.5,4-.5h16.4c1.8,0,2.9,0,4,.5,1,.5,1.7,1.2,2.2,2.2.5,1.1.5,2.2.5,4v10.8c0,1.8,0,2.9-.5,4-.5,1-1.2,1.7-2.2,2.2-1.1.5-2.2.5-4,.5h-6v1.3h3.5c1.2,0,2.2,1,2.2,2.2s-1,2.2-2.2,2.2h-11.3ZM9.8,7.5c-.8,0-1.8,0-2,0-.1,0-.2.1-.3.3,0,.2,0,1.2,0,2v10.8c0,.8,0,1.8,0,2,0,.1.2.2.3.3.2,0,1.2,0,2,0h16.4c.8,0,1.8,0,2,0,.1,0,.2-.2.3-.3,0-.2,0-1.2,0-2v-10.8c0-.8,0-1.8,0-2,0-.1-.2-.2-.3-.3-.2,0-1.2,0-2,0H9.8Z"/>
      <path class="cls-1" d="M26.2,3.6c1.8,0,2.8,0,3.8.5.9.4,1.5,1.1,2,2,.5,1,.5,2,.5,3.8v10.8c0,1.8,0,2.8-.5,3.8-.4.9-1.1,1.5-2,2-1,.5-2,.5-3.8.5h-6.5v2.3h4c.9,0,1.7.8,1.7,1.7s-.8,1.7-1.7,1.7h-11.3c-.9,0-1.7-.8-1.7-1.7s.8-1.7,1.7-1.7h4v-2.3h-6.5c-1.8,0-2.8,0-3.8-.5-.9-.4-1.5-1.1-2-2-.5-1-.5-2-.5-3.8v-10.8c0-1.8,0-2.8.5-3.8.4-.9,1.1-1.5,2-2,1-.5,2-.5,3.8-.5h16.4M9.8,23.4h16.4c1.1,0,2,0,2.2-.1.2-.1.4-.3.5-.5.1-.2.1-1.2.1-2.2v-10.8c0-1.1,0-2-.1-2.2-.1-.2-.3-.4-.5-.5-.2-.1-1.2-.1-2.2-.1H9.8c-1.1,0-2,0-2.2.1-.2.1-.4.3-.5.5-.1.2-.1,1.2-.1,2.2v10.8c0,1.1,0,2,.1,2.2.1.2.3.4.5.5.2.1,1.2.1,2.2.1M26.2,2.6H9.8c-1.9,0-3,0-4.2.6-1,.5-1.9,1.4-2.4,2.4-.6,1.2-.6,2.3-.6,4.2v10.8c0,1.9,0,3,.6,4.2.5,1,1.4,1.9,2.4,2.4,1.2.6,2.3.6,4.2.6h5.5v.3h-3c-1.5,0-2.7,1.2-2.7,2.7s1.2,2.7,2.7,2.7h11.3c1.5,0,2.7-1.2,2.7-2.7s-1.2-2.7-2.7-2.7h-3v-.3h5.5c1.9,0,3,0,4.2-.6,1-.5,1.9-1.4,2.4-2.4.6-1.2.6-2.3.6-4.2v-10.8c0-1.9,0-3-.6-4.2-.5-1-1.4-1.9-2.4-2.4-1.2-.6-2.3-.6-4.2-.6h0ZM8,8c.3,0,1.2,0,1.8,0h16.4c.6,0,1.5,0,1.8,0,0,.3,0,1.2,0,1.8v10.8c0,.6,0,1.5,0,1.8-.3,0-1.2,0-1.8,0H9.8c-.6,0-1.5,0-1.8,0,0-.3,0-1.2,0-1.8v-10.8c0-.6,0-1.5,0-1.8h0Z"/>
    </g>
  </g>
</svg>
